app/assets/svg/food__svg.svg

<svg width="60" height="60" viewBox="0 0 60 60" fill="none" xmlns="http://www.w3.org/2000/svg">
<rect width="60" height="60" rx="30" fill="#FAC663"/>
<path d="M31.0938 30.7365C33.2533 30.7365 35.0202 33.0063 35.0202 33.5738C35.0202 34.1412 33.2533 36.0328 31.0938 36.0328C28.9343 36.0328 27.3637 33.5738 27.3637 33.5738C27.3637 33.5738 28.9343 30.7364 31.0938 30.7365Z" fill="#FFFDFB"/>
<path d="M25.0078 31.3039L27.3637 33.5738M27.3637 33.5738L25.0078 35.8436M27.3637 33.5738C27.3637 33.5738 28.9343 36.0328 31.0938 36.0328C33.2533 36.0328 35.0202 34.1412 35.0202 33.5738C35.0202 33.0063 33.2533 30.7365 31.0938 30.7365C28.9343 30.7364 27.3637 33.5738 27.3637 33.5738Z" stroke="#FFFDFB" stroke-width="2" stroke-linecap="round" stroke-linejoin="round"/>
<path d="M18.8663 25.1296H19.057L19.3702 24.5551C19.5957 24.1414 20.0014 23.6921 20.3519 23.3579C20.5317 23.1865 20.7101 23.0328 20.8625 22.9172C20.9381 22.8598 21.0143 22.8065 21.0856 22.7642C21.1335 22.7359 21.2546 22.6646 21.3971 22.6484L21.3973 22.6484C21.6206 22.623 21.7897 22.4719 21.841 22.2873C22.0044 21.7 22.559 21.2977 23.0462 21.0692C23.5493 20.8333 24.1675 20.6935 24.662 20.7741L24.6622 20.7742C24.8854 20.8106 25.0988 20.7099 25.2054 20.5402L25.2055 20.54C25.484 20.0969 25.9641 19.8073 26.4429 19.6711C26.9228 19.5346 27.4856 19.5279 27.9644 19.7537L27.9644 19.7537C28.1644 19.8481 28.4033 19.8129 28.5623 19.6729L28.5623 19.6729C28.9564 19.3259 29.5 19.1796 29.999 19.1794C30.4981 19.1791 31.0424 19.3248 31.4378 19.6728L31.4379 19.6729C31.5968 19.8128 31.8354 19.8481 32.0358 19.7537L18.8663 25.1296ZM18.8663 25.1296L18.9178 24.9068C19.3232 23.1542 20.9292 22.621 21.1215 22.5595L21.3183 22.4966L21.4133 22.3132C22.2817 20.6363 24.0835 20.5481 24.2884 20.5412L24.4911 20.5344L24.6318 20.3883C25.6946 19.2842 27.1397 19.2696 27.9171 19.4619L28.1118 19.51L28.2857 19.4103C29.6344 18.6375 31.0268 19.0165 31.7142 19.4103L31.8881 19.51L32.0828 19.4618C32.8599 19.2696 34.3047 19.284 35.3678 20.3883L35.5085 20.5344L35.7113 20.5412C35.8666 20.5464 36.9181 20.5973 37.8006 21.3306M18.8663 25.1296L37.8006 21.3306M37.8006 21.3306C37.6544 21.2291 37.5015 21.1436 37.3546 21.0739C36.853 20.8359 36.2331 20.6921 35.7308 20.7741C35.5071 20.8105 35.2937 20.7099 35.187 20.5401L35.187 20.54C35.0273 20.2858 34.7848 20.0982 34.5392 19.9634C34.2891 19.8261 34.0047 19.7263 33.7204 19.6625C33.1756 19.5403 32.5172 19.5267 32.0359 19.7537L37.8006 21.3306ZM22.8045 22.5553L22.8044 22.5555C22.6455 23.1264 22.1608 23.5385 21.5833 23.6319C21.5563 23.6488 21.5173 23.6756 21.4669 23.7139C21.3509 23.8018 21.2013 23.9297 21.042 24.0816C20.9698 24.1505 20.898 24.2219 20.8285 24.2944H39.2763C39.2016 24.1912 39.1266 24.0921 39.0546 24.0004C38.9358 23.8494 38.8304 23.7257 38.7529 23.6428C38.7439 23.6331 38.7356 23.6244 38.728 23.6165C38.187 23.4992 37.7395 23.0995 37.5883 22.5553C37.5467 22.4055 37.3355 22.1716 36.926 21.9774C36.533 21.791 36.125 21.7229 35.8919 21.7611L35.8915 21.7611C35.2861 21.8597 34.6687 21.595 34.3403 21.0721C34.302 21.0112 34.2155 20.9265 34.058 20.84C33.9049 20.756 33.7119 20.6855 33.5014 20.6383C33.0567 20.5385 32.6557 20.567 32.4623 20.6582L32.4622 20.6582C31.906 20.9204 31.2393 20.8305 30.777 20.4234C30.6127 20.2789 30.3285 20.1792 29.9995 20.1794C29.6705 20.1795 29.3865 20.2796 29.2231 20.4234C28.7609 20.8304 28.0938 20.9204 27.5378 20.6582L22.8045 22.5553ZM22.8045 22.5553C22.8476 22.4001 23.0609 22.1668 23.4708 21.9746M22.8045 22.5553L23.4708 21.9746M23.4708 21.9746C23.8648 21.7898 24.2727 21.724 24.501 21.7611M23.4708 21.9746L24.501 21.7611M24.501 21.7611C25.1069 21.8601 25.7242 21.5944 26.0522 21.0721M24.501 21.7611L24.5816 21.2676L26.0522 21.0721M26.0522 21.0721C26.1641 20.8941 26.4028 20.7222 26.7165 20.6329M26.0522 21.0721L26.7165 20.6329M26.7165 20.6329C27.029 20.544 27.3321 20.5612 27.5378 20.6582L26.7165 20.6329ZM44.7743 25.7134L44.7743 25.7135L46.9677 40.4872C46.9778 40.5558 46.9719 40.6258 46.9504 40.6923L46.9406 40.6278L44.647 25.5544L44.6297 25.4403C44.7074 25.5145 44.759 25.6105 44.7743 25.7134ZM13.0593 40.6278L13.0494 40.6922C13.028 40.6259 13.0222 40.556 13.0324 40.4876L13.0324 40.4874L15.2255 25.7135L15.2255 25.7134C15.2408 25.6105 15.2924 25.5145 15.3702 25.4403L15.3528 25.5544L13.0593 40.6278ZM41.1333 25.1296H40.943L40.6293 24.5549C40.4058 24.1454 40.1 23.712 39.8406 23.3822C39.7103 23.2166 39.5862 23.07 39.484 22.9605C39.4338 22.9067 39.3822 22.8546 39.3335 22.812C39.3098 22.7913 39.278 22.765 39.2412 22.7406L39.2393 22.7394C39.2183 22.7253 39.1253 22.6632 38.9955 22.6484L38.9953 22.6484C38.772 22.623 38.603 22.4718 38.5518 22.2876L38.5518 22.2875C38.5431 22.2564 38.5333 22.2258 38.5225 22.1957C38.5443 22.2339 38.5656 22.273 38.5863 22.313L38.6813 22.4963L38.8779 22.5592C39.0675 22.6199 40.6752 23.1504 41.0818 24.9069L41.1333 25.1296ZM21.6169 23.613C21.6168 23.6132 21.6137 23.6149 21.6079 23.6174C21.6141 23.614 21.617 23.6128 21.6169 23.613Z" fill="#FFFDFB" stroke="#FFFDFB" stroke-width="0.999999"/>
</svg>

<svg width="60" height="60" fill="none" xmlns="http://www.w3.org/2000/svg"><rect width="60" height="60" rx="30" fill="#FAC663"/><path d="M31.094 30.736c2.16 0 3.926 2.27 3.926 2.838 0 .567-1.767 2.459-3.926 2.459-2.16 0-3.73-2.46-3.73-2.46s1.57-2.837 3.73-2.837Z" fill="#FFFDFB"/><path d="m25.008 31.304 2.356 2.27m0 0-2.356 2.27m2.356-2.27s1.57 2.459 3.73 2.459 3.926-1.892 3.926-2.46c0-.567-1.767-2.837-3.926-2.837-2.16 0-3.73 2.838-3.73 2.838Z" stroke="#FFFDFB" stroke-width="2" stroke-linecap="round" stroke-linejoin="round"/><path d="M18.866 25.13h.191l.313-.575c.226-.414.631-.863.982-1.197a6.21 6.21 0 0 1 .51-.44c.076-.058.152-.111.224-.154a.81.81 0 0 1 .311-.116.513.513 0 0 0 .444-.36c.163-.588.718-.99 1.205-1.219.503-.236 1.122-.375 1.616-.295a.539.539 0 0 0 .543-.234c.279-.443.76-.733 1.238-.869.48-.136 1.043-.143 1.521.083.2.094.44.059.598-.081.394-.347.938-.493 1.437-.494.5 0 1.043.146 1.439.494.159.14.397.175.598.08l-13.17 5.377Zm0 0 .052-.223c.405-1.753 2.011-2.286 2.204-2.348l.196-.062.095-.184c.869-1.677 2.67-1.765 2.875-1.772l.203-.007.14-.146c1.064-1.104 2.509-1.118 3.286-.926l.195.048.174-.1c1.348-.773 2.74-.393 3.428 0l.174.1.195-.048c.777-.192 2.222-.178 3.285.926l.14.146.203.007c.156.005 1.207.056 2.09.79M18.866 25.13l18.935-3.8m0 0a3.166 3.166 0 0 0-.446-.256c-.502-.238-1.122-.382-1.624-.3a.54.54 0 0 1-.544-.234c-.16-.254-.402-.442-.648-.577a3.155 3.155 0 0 0-.819-.3c-.544-.123-1.203-.136-1.684.09l5.765 1.578Zm-14.997 1.225a1.51 1.51 0 0 1-1.22 1.077 1.636 1.636 0 0 0-.117.082 5.198 5.198 0 0 0-.425.368c-.072.069-.144.14-.214.212h18.448a9.475 9.475 0 0 0-.221-.294 5.818 5.818 0 0 0-.327-.384 1.507 1.507 0 0 1-1.14-1.06c-.041-.15-.252-.384-.662-.579-.393-.186-.801-.254-1.034-.216a1.539 1.539 0 0 1-1.552-.689.768.768 0 0 0-.282-.232 2.162 2.162 0 0 0-.557-.202c-.444-.1-.845-.071-1.039.02a1.555 1.555 0 0 1-1.685-.235c-.164-.144-.449-.244-.777-.244-.33 0-.613.1-.777.244a1.555 1.555 0 0 1-1.685.235l-4.733 1.897Zm0 0c.044-.155.257-.388.667-.58m-.666.58.666-.58m0 0c.394-.185.802-.251 1.03-.214m-1.03.214 1.03-.214m0 0a1.539 1.539 0 0 0 1.551-.689m-1.551.69.08-.494 1.471-.196m0 0c.112-.178.35-.35.665-.44m-.665.44.665-.44m0 0c.312-.088.615-.07.82.026l-.82-.025Zm18.057 5.081 2.194 14.774a.452.452 0 0 1-.018.205l-.01-.064-2.293-15.074-.017-.114c.077.075.129.17.144.273ZM13.06 40.628l-.01.064a.45.45 0 0 1-.017-.204l2.194-14.774a.477.477 0 0 1 .144-.274l-.017.114-2.294 15.074ZM41.133 25.13h-.19l-.314-.575a8.973 8.973 0 0 0-1.145-1.595 2.153 2.153 0 0 0-.15-.148.887.887 0 0 0-.093-.071l-.002-.002a.56.56 0 0 0-.243-.09.513.513 0 0 1-.444-.361 1.343 1.343 0 0 0-.03-.092c.022.038.044.077.064.117l.095.183.197.063c.19.06 1.797.591 2.204 2.348l.051.223Zm-19.516-1.517-.01.004a.05.05 0 0 1 .01-.004Z" fill="#FFFDFB" stroke="#FFFDFB"/></svg>
